static/assets/template/assets/img/svg/backgrounds/bg-1.svg

<svg viewBox="0 0 1506.3 578.7" xmlns="http://www.w3.org/2000/svg"><path d="m147.269 295.566c.645-1.666 2.13-2.861 3.895-3.135l16.53-2.568c1.765-.275 3.542.414 4.662 1.805l10.489 13.031c1.12 1.392 1.413 3.275.768 4.941l-6.041 15.599c-.645 1.666-2.13 2.861-3.895 3.136l-16.53 2.568c-1.765.274-3.542-.414-4.662-1.806l-10.489-13.031c-1.12-1.392-1.413-3.275-.768-4.941z"/><path d="m92.927 474.881c.382-.985 1.26-1.691 2.303-1.853l9.772-1.518c1.043-.163 2.094.244 2.756 1.067l6.201 7.703c.662.823.835 1.936.454 2.921l-3.572 9.222c-.381.985-1.259 1.691-2.302 1.854l-9.772 1.518c-1.044.162-2.094-.245-2.756-1.068l-6.201-7.703c-.662-.823-.835-1.936-.454-2.921z"/><path d="m34.176 36.897c.645-1.666 2.13-2.861 3.895-3.135l16.53-2.568c1.765-.275 3.542.414 4.662 1.805l10.489 13.031c1.12 1.392 1.413 3.275.768 4.941l-6.041 15.599c-.645 1.666-2.13 2.861-3.895 3.136l-16.53 2.568c-1.765.274-3.542-.414-4.662-1.806l-10.489-13.031c-1.12-1.392-1.413-3.275-.768-4.941z"/><path d="m330.588 185.515c.447-1.154 1.476-1.982 2.698-2.171l11.45-1.779c1.222-.191 2.453.287 3.229 1.25l7.265 9.026c.776.964.979 2.269.532 3.423l-4.184 10.804c-.447 1.154-1.476 1.982-2.698 2.172l-11.45 1.779c-1.222.19-2.453-.287-3.229-1.251l-7.265-9.026c-.776-.964-.979-2.268-.532-3.422z"/><path d="m1417.759 409.863c.645-1.666 2.13-2.861 3.895-3.135l16.53-2.568c1.765-.275 3.542.414 4.662 1.805l10.489 13.031c1.12 1.392 1.413 3.275.768 4.941l-6.041 15.599c-.645 1.666-2.13 2.861-3.895 3.136l-16.53 2.568c-1.765.274-3.542-.414-4.662-1.806l-10.489-13.031c-1.12-1.392-1.413-3.275-.768-4.941z"/><path d="m1313.903 202.809c.363-.936 1.197-1.608 2.189-1.762l9.289-1.443c.992-.155 1.991.233 2.62 1.014l5.894 7.323c.63.782.794 1.841.432 2.777l-3.395 8.766c-.362.936-1.197 1.608-2.189 1.762l-9.289 1.443c-.992.154-1.99-.232-2.62-1.015l-5.894-7.323c-.63-.782-.794-1.84-.432-2.776z"/><path d="m1084.395 506.137c.513-1.325 1.695-2.276 3.099-2.494l13.151-2.043c1.404-.219 2.818.329 3.709 1.436l8.345 10.367c.891 1.107 1.124 2.606.611 3.931l-4.806 12.41c-.514 1.326-1.695 2.276-3.099 2.495l-13.151 2.043c-1.404.218-2.818-.329-3.709-1.437l-8.345-10.367c-.891-1.107-1.124-2.605-.611-3.931z"/></svg>

<svg x="0px" y="0px" viewBox="0 0 1506.3 578.7" xmlns="http://www.w3.org/2000/svg">
    <path class="fill-purple" d="M 147.269 295.566 C 147.914 293.9 149.399 292.705 151.164 292.431 L 167.694 289.863 C 169.459 289.588 171.236 290.277 172.356 291.668 L 182.845 304.699 C 183.965 306.091 184.258 307.974 183.613 309.64 L 177.572 325.239 C 176.927 326.905 175.442 328.1 173.677 328.375 L 157.147 330.943 C 155.382 331.217 153.605 330.529 152.485 329.137 L 141.996 316.106 C 140.876 314.714 140.583 312.831 141.228 311.165 L 147.269 295.566 Z"/>
    <path class="fill-green" d="M 92.927 474.881 C 93.309 473.896 94.187 473.19 95.23 473.028 L 105.002 471.51 C 106.045 471.347 107.096 471.754 107.758 472.577 L 113.959 480.28 C 114.621 481.103 114.794 482.216 114.413 483.201 L 110.841 492.423 C 110.46 493.408 109.582 494.114 108.539 494.277 L 98.767 495.795 C 97.723 495.957 96.673 495.55 96.011 494.727 L 89.81 487.024 C 89.148 486.201 88.975 485.088 89.356 484.103 L 92.927 474.881 Z"/>
    <path class="fill-teal" d="M 34.176 36.897 C 34.821 35.231 36.306 34.036 38.071 33.762 L 54.601 31.194 C 56.366 30.919 58.143 31.608 59.263 32.999 L 69.752 46.03 C 70.872 47.422 71.165 49.305 70.52 50.971 L 64.479 66.57 C 63.834 68.236 62.349 69.431 60.584 69.706 L 44.054 72.274 C 42.289 72.548 40.512 71.86 39.392 70.468 L 28.903 57.437 C 27.783 56.045 27.49 54.162 28.135 52.496 L 34.176 36.897 Z"/>
    <path class="fill-yellow" d="M 330.588 185.515 C 331.035 184.361 332.064 183.533 333.286 183.344 L 344.736 181.565 C 345.958 181.374 347.189 181.852 347.965 182.815 L 355.23 191.841 C 356.006 192.805 356.209 194.11 355.762 195.264 L 351.578 206.068 C 351.131 207.222 350.102 208.05 348.88 208.24 L 337.43 210.019 C 336.208 210.209 334.977 209.732 334.201 208.768 L 326.936 199.742 C 326.16 198.778 325.957 197.474 326.404 196.32 L 330.588 185.515 Z"/>
    <path class="fill-gray-dark" d="M 1417.759 409.863 C 1418.404 408.197 1419.889 407.002 1421.654 406.728 L 1438.184 404.16 C 1439.949 403.885 1441.726 404.574 1442.846 405.965 L 1453.335 418.996 C 1454.455 420.388 1454.748 422.271 1454.103 423.937 L 1448.062 439.536 C 1447.417 441.202 1445.932 442.397 1444.167 442.672 L 1427.637 445.24 C 1425.872 445.514 1424.095 444.826 1422.975 443.434 L 1412.486 430.403 C 1411.366 429.011 1411.073 427.128 1411.718 425.462 L 1417.759 409.863 Z"/>
    <path class="fill-orange" d="M 1313.903 202.809 C 1314.266 201.873 1315.1 201.201 1316.092 201.047 L 1325.381 199.604 C 1326.373 199.449 1327.372 199.837 1328.001 200.618 L 1333.895 207.941 C 1334.525 208.723 1334.689 209.782 1334.327 210.718 L 1330.932 219.484 C 1330.57 220.42 1329.735 221.092 1328.743 221.246 L 1319.454 222.689 C 1318.462 222.843 1317.464 222.457 1316.834 221.674 L 1310.94 214.351 C 1310.31 213.569 1310.146 212.511 1310.508 211.575 L 1313.903 202.809 Z"/>
    <path class="fill-red" d="M 1084.395 506.137 C 1084.908 504.812 1086.09 503.861 1087.494 503.643 L 1100.645 501.6 C 1102.049 501.381 1103.463 501.929 1104.354 503.036 L 1112.699 513.403 C 1113.59 514.51 1113.823 516.009 1113.31 517.334 L 1108.504 529.744 C 1107.99 531.07 1106.809 532.02 1105.405 532.239 L 1092.254 534.282 C 1090.85 534.5 1089.436 533.953 1088.545 532.845 L 1080.2 522.478 C 1079.309 521.371 1079.076 519.873 1079.589 518.547 L 1084.395 506.137 Z"/>
</svg>
